X: 90
T:Parsou
M:3/4
L:1/4
C:Traditional
R:Waltz
Z:Steve Mansfield
K:G
DED | B3 | A/B/cB | c3 | A>c  A/F/ | GF/G/ B/G/ | FG/A/ G/F/ | 
E2 D | DED | B3 | A/B/cB | c3 | A>c A/F/ | GF/G/ B/G/ | 
FG/A/ G/F/ | G3 :: BG/B/ G/B/ | cA/c/ A/c/ | dcA | 
B/c/B/A/G | BG/B/ G/B/ | cA/c/A/c/ | dcA/F/ |1 G3 :|2 G3 ||
<end>
<start>
